X: 1
T:Da New Rigged Ship
M:4/4
L:1/8
R:Reel
K:D
eg|"Am"a2 ab ageg|"Am"a2 ab agef|"G"g2ge fgag|"D"f2 d2 d2:|| K:A |!||:ed
|"A"cAcA"E7"B2 ed|"A"cAcA E2 ed|"A"cAcA"E7"B2 ed|"A"c2 A2 A2:|| K:Am |!|
|:AB|"Am"cdec "G"BcdB|"Am"ABAF "Em"GF E2|"Am"cdec "G"BcdB|"Am"c2 A2 A2:|
|
